src/images/AirtimeRewards/Tile.svg

<svg fill="none" height="120" viewBox="0 0 120 120" width="120" xmlns="http://www.w3.org/2000/svg" xmlns:xlink="http://www.w3.org/1999/xlink"><clipPath id="a"><path d="m29 25h62v70h-62z"/></clipPath><path d="m0 0h120v120h-120z" fill="#1ee6c6"/><g clip-path="url(#a)"><path d="m83.9091 61.3593c2.3998.0013 4.7876-.3366 7.0909-1.0033v-8.9536c-3.1194 1.4435-6.6118 1.9031-10.0039 1.3165-3.3922-.5866-6.5202-2.191-8.9602-4.5958l6.0128-5.9509c-5.4946-5.4524-12.0238-9.7763-19.2123-12.7232-7.1885-2.947-14.8946-4.4589-22.6754-4.449-2.3935.0006-4.7848.1435-7.161.428v8.469c7.7917-1.1021 15.7356-.3921 23.2018 2.0734 7.4662 2.4656 14.2492 6.619 19.8111 12.1309l.0234.022-5.98 5.9185c-4.7855-4.7329-10.6479-8.2613-17.0955-10.2893s-13.2925-2.4966-19.9608-1.3664v8.5505c5.5259-1.187 11.2648-.979 16.6882.6049s10.357 4.4927 14.3466 8.4587l-.2516.2488-5.769 5.7095c-3.2128-3.1775-7.2317-5.4391-11.6337-6.5469s-9.0243-1.0207-13.3805.252v8.9629c3.1227-1.463 6.6263-1.9338 10.0301-1.3479s6.541 2.1999 8.9812 4.6204l-.2772.2742-5.7127 5.655c5.4946 5.4524 12.0238 9.7763 19.2123 12.7233 7.1885 2.9469 14.8946 4.4588 22.6754 4.4488 2.37-.0006 4.7379-.1415 7.0909-.4217v-8.4676c-7.788 1.0929-15.7261.378-23.1868-2.0884-7.4606-2.4664-14.2394-6.6165-19.8003-12.1224l.2779-.2753 5.7234-5.6645c3.9217 3.8911 8.5817 6.9769 13.7121 9.0799 5.1304 2.1031 10.6302 3.182 16.1833 3.1748 2.3761-.0001 4.7481-.1976 7.0909-.5905v-8.5481c-5.5166 1.175-11.2429.9597-16.6535-.6262-5.4105-1.5859-10.3318-4.4915-14.3122-8.4501l6.0215-5.9593c2.3419 2.3237 5.1247 4.1665 8.1885 5.4224s6.3481 1.9003 9.6643 1.896z" fill="#fff"/><g fill="#77858c"><path d="m66.0566 54.0408c1.7163 1.699 3.6703 3.1451 5.8023 4.2938l6.3958-6.3297c-2.3386-.8207-4.463-2.1469-6.2188-3.8821z" opacity=".25"/><path d="m48.013 71.9002-5.9915 5.9279c1.695 1.6773 3.4908 3.2518 5.3775 4.7148l6.0436-5.9813c-1.9186-1.4252-3.733-2.9829-5.4296-4.6614z" opacity=".25"/><path d="m60.035 60.0001-6.0213 5.9593c1.6995 1.6817 3.5401 3.2176 5.502 4.5914l6.1276-6.0645c-2.024-1.2956-3.9039-2.7993-5.6083-4.4862z" opacity=".25"/></g></g></svg>

<svg width="120" height="120" viewBox="0 0 120 120" fill="none" xmlns="http://www.w3.org/2000/svg">
<rect width="120" height="120" fill="#1EE6C6"/>
<g clip-path="url(#clip0_253_2715)">
<path d="M83.9091 61.3593C86.3089 61.3606 88.6967 61.0227 91 60.356V51.4024C87.8806 52.8459 84.3882 53.3055 80.9961 52.7189C77.6039 52.1323 74.4759 50.5279 72.0359 48.1231L78.0487 42.1722C72.5541 36.7198 66.0249 32.3959 58.8364 29.449C51.6479 26.502 43.9418 24.9901 36.161 25C33.7675 25.0006 31.3762 25.1435 29 25.428L29 33.897C36.7917 32.7949 44.7356 33.5049 52.2018 35.9704C59.668 38.436 66.451 42.5894 72.0129 48.1013L72.0363 48.1233L66.0563 54.0418C61.2708 49.3089 55.4084 45.7805 48.9608 43.7525C42.5132 41.7245 35.6683 41.2559 29 42.3861L29 50.9366C34.5259 49.7496 40.2648 49.9576 45.6882 51.5415C51.1116 53.1254 56.0452 56.0342 60.0348 60.0002L59.7832 60.249L54.0142 65.9585C50.8014 62.781 46.7825 60.5194 42.3805 59.4116C37.9785 58.3038 33.3562 58.3909 29 59.6636L29 68.6265C32.1227 67.1635 35.6263 66.6927 39.0301 67.2786C42.4339 67.8645 45.5711 69.4785 48.0113 71.899L47.7341 72.1732L42.0214 77.8282C47.516 83.2806 54.0452 87.6045 61.2337 90.5515C68.4222 93.4984 76.1283 95.0103 83.9091 95.0003C86.2791 94.9997 88.647 94.8588 91 94.5786V86.111C83.212 87.2039 75.2739 86.489 67.8132 84.0226C60.3526 81.5562 53.5738 77.4061 48.0129 71.9002L48.2908 71.6249L54.0142 65.9604C57.9359 69.8515 62.5959 72.9373 67.7263 75.0403C72.8567 77.1434 78.3565 78.2223 83.9096 78.2151C86.2857 78.215 88.6577 78.0175 91.0005 77.6246V69.0765C85.4839 70.2515 79.7576 70.0362 74.347 68.4503C68.9365 66.8644 64.0152 63.9588 60.0348 60.0002L66.0563 54.0409C68.3982 56.3646 71.181 58.2074 74.2448 59.4633C77.3086 60.7192 80.5929 61.3636 83.9091 61.3593Z" fill="white"/>
<path opacity="0.25" d="M66.0566 54.0408C67.7729 55.7398 69.7269 57.1859 71.8589 58.3346L78.2547 52.0049C75.9161 51.1842 73.7917 49.858 72.0359 48.1228L66.0566 54.0408Z" fill="#77858C"/>
<path opacity="0.25" d="M48.013 71.9002L42.0215 77.8281C43.7165 79.5054 45.5123 81.0799 47.399 82.5429L53.4426 76.5616C51.524 75.1364 49.7096 73.5787 48.013 71.9002Z" fill="#77858C"/>
<path opacity="0.25" d="M60.035 60.0001L54.0137 65.9594C55.7132 67.6411 57.5538 69.177 59.5157 70.5508L65.6433 64.4863C63.6193 63.1907 61.7394 61.687 60.035 60.0001Z" fill="#77858C"/>
</g>
<defs>
<clipPath id="clip0_253_2715">
<rect width="62" height="70" fill="white" transform="translate(29 25)"/>
</clipPath>
</defs>
</svg>
